assets/img/edit.svg

<?xml version="1.0" encoding="iso-8859-1"?>
<!-- Generator: Adobe Illustrator 19.0.0, SVG Export Plug-In . SVG Version: 6.00 Build 0)  -->
<svg version="1.1" id="Capa_1" xmlns="http://www.w3.org/2000/svg" xmlns:xlink="http://www.w3.org/1999/xlink" x="0px" y="0px"
	 viewBox="0 0 490.273 490.273" style="enable-background:new 0 0 490.273 490.273;" xml:space="preserve">
<g>
	<g>
		<g>
			<path d="M313.548,152.387l-230.8,230.9c-6.7,6.7-6.7,17.6,0,24.3c3.3,3.3,7.7,5,12.1,5s8.8-1.7,12.1-5l230.8-230.8
				c6.7-6.7,6.7-17.6,0-24.3C331.148,145.687,320.248,145.687,313.548,152.387z"/>
			<path d="M431.148,191.887c4.4,0,8.8-1.7,12.1-5l25.2-25.2c29.1-29.1,29.1-76.4,0-105.4l-34.4-34.4
				c-14.1-14.1-32.8-21.8-52.7-21.8c-19.9,0-38.6,7.8-52.7,21.8l-25.2,25.2c-6.7,6.7-6.7,17.6,0,24.3l115.6,115.6
				C422.348,190.187,426.748,191.887,431.148,191.887z M352.948,45.987c7.6-7.6,17.7-11.8,28.5-11.8c10.7,0,20.9,4.2,28.5,11.8
				l34.4,34.4c15.7,15.7,15.7,41.2,0,56.9l-13.2,13.2l-91.4-91.4L352.948,45.987z"/>
			<path d="M162.848,467.187l243.5-243.5c6.7-6.7,6.7-17.6,0-24.3s-17.6-6.7-24.3,0l-239.3,239.5l-105.6,14.2l14.2-105.6
				l228.6-228.6c6.7-6.7,6.7-17.6,0-24.3c-6.7-6.7-17.6-6.7-24.3,0l-232.6,232.8c-2.7,2.7-4.4,6.1-4.9,9.8l-18,133.6
				c-0.7,5.3,1.1,10.6,4.9,14.4c3.2,3.2,7.6,5,12.1,5c0.8,0,1.5-0.1,2.3-0.2l133.6-18
				C156.748,471.587,160.248,469.887,162.848,467.187z"/>
		</g>
	</g>
	<g>
	</g>
	<g>
	</g>
	<g>
	</g>
	<g>
	</g>
	<g>
	</g>
	<g>
	</g>
	<g>
	</g>
	<g>
	</g>
	<g>
	</g>
	<g>
	</g>
	<g>
	</g>
	<g>
	</g>
	<g>
	</g>
	<g>
	</g>
	<g>
	</g>
</g>
<g>
</g>
<g>
</g>
<g>
</g>
<g>
</g>
<g>
</g>
<g>
</g>
<g>
</g>
<g>
</g>
<g>
</g>
<g>
</g>
<g>
</g>
<g>
</g>
<g>
</g>
<g>
</g>
<g>
</g>
</svg>

<svg id="eeDl1oB7Wxj1" xmlns="http://www.w3.org/2000/svg" xmlns:xlink="http://www.w3.org/1999/xlink" viewBox="0 0 490.273 490.273" shape-rendering="geometricPrecision" text-rendering="geometricPrecision"><g id="eeDl1oB7Wxj2"><g id="eeDl1oB7Wxj3"><g id="eeDl1oB7Wxj4"><path id="eeDl1oB7Wxj5" d="M313.548,152.387L82.748,383.287C76.048,389.987,76.048,400.887,82.748,407.587C86.048,410.887,90.448,412.587,94.848,412.587C99.248,412.587,103.648,410.887,106.948,407.587L337.748,176.787C344.448,170.087,344.448,159.187,337.748,152.487C331.148,145.687,320.248,145.687,313.548,152.387Z" fill="rgba(0,0,0,0.78)" stroke="none" stroke-width="1"/><path id="eeDl1oB7Wxj6" d="M431.148,191.887C435.548,191.887,439.948,190.187,443.248,186.887L468.448,161.687C497.548,132.587,497.548,85.287,468.448,56.287L434.048,21.887C419.948,7.787,401.248,0.087,381.348,0.087C361.448,0.087,342.748,7.887,328.648,21.887L303.448,47.087C296.748,53.787,296.748,64.687,303.448,71.387L419.048,186.987C422.348,190.187,426.748,191.887,431.148,191.887ZM352.948,45.987C360.548,38.387,370.648,34.187,381.448,34.187C392.148,34.187,402.348,38.387,409.948,45.987L444.348,80.387C460.048,96.087,460.048,121.587,444.348,137.287L431.148,150.487L339.748,59.087L352.948,45.987Z" fill="rgba(0,0,0,0.78)" stroke="none" stroke-width="1"/><path id="eeDl1oB7Wxj7" d="M162.848,467.187L406.348,223.687C413.048,216.987,413.048,206.087,406.348,199.387C399.648,192.687,388.748,192.687,382.048,199.387L142.748,438.887L37.148,453.087L51.348,347.487L279.948,118.887C286.648,112.187,286.648,101.287,279.948,94.587C273.248,87.887,262.348,87.887,255.648,94.587L23.048,327.387C20.348,330.087,18.648,333.487,18.148,337.187L0.148,470.787C-0.552,476.087,1.248,481.387,5.048,485.187C8.248,488.387,12.648,490.187,17.148,490.187C17.948,490.187,18.648,490.087,19.448,489.987L153.048,471.987C156.748,471.587,160.248,469.887,162.848,467.187Z" fill="rgba(0,0,0,0.78)" stroke="none" stroke-width="1"/></g></g></g></svg>
